X: 358
T:Guillaume se va chaufer
N: Derived from Jos2817-Guillaume_se_va_chaufer.krn
C: Josquin des Prez
%%abc-version 2.0
%%abcx-abcm2ps-target-version 5.9.1 (29 Sep 2008)
%%abc-creator hum2abc beta
%%abcx-conversion-date 2019/02/12 16:15:54
%%abc-edited-by Jesse Rodin
%%abc-edited-by Jesse Rodin; Victoria Chang 2011/10/21
%%abcx-initial-encoding-date 2011/10/21/
%%humdrum-veritas 972609097
%%humdrum-veritas-data 1689553534
%%linebreak <none>
%%barnumbers 0
L: 1/4
M: 2/1
Q: 1/2=120
%%staves [1 2 3 4]
V: 1 clef=treble
V: 2 clef=treble-8
V: 3 clef=treble-8
V: 4 clef=bass
K: F
[V:1] z4A4 | 
[V:2] z8 | 
[V:3] d8- | 
[V:4] G,,4D,4 | 
[V:1] B4A2A2 | 
[V:2] z8 | 
[V:3] d8- | 
[V:4] G,,4D,4 | 
[V:1] G2G2F4 | 
[V:2] z4a4 | 
[V:3] d8- | 
[V:4] G,,4D,4 | 
[V:1] z4A4 | 
[V:2] b4a2a2 | 
[V:3] d8- | 
[V:4] G,,4D,4 | 
[V:1] B4A2A2 | 
[V:2] g2g2f4 | 
[V:3] d8- | 
[V:4] G,,4D,4 | 
[V:1] G2G2F4 | 
[V:2] z4a4 | 
[V:3] d8- | 
[V:4] G,,4D,4 | 
[V:1] G4z2A2 | 
[V:2] b4a2a2 | 
[V:3] d8- | 
[V:4] G,,4D,4 | 
[V:1] B4A2A2 | 
[V:2] g2g2f4 | 
[V:3] d8- | 
[V:4] G,,4D,4 | 
[V:1] G2G2F4 | 
[V:2] g4z2a2 | 
[V:3] d8- | 
[V:4] G,,4D,4 | 
[V:1] z4A4 | 
[V:2] b4a2a2 | 
[V:3] d8- | 
[V:4] G,,4D,4 | 
[V:1] B4A2A2 | 
[V:2] g2g2f4 | 
[V:3] d8- | 
[V:4] G,,4D,4 | 
[V:1] G2G2F4 | 
[V:2] z4a4 | 
[V:3] d8- | 
[V:4] G,,4D,4 | 
[V:1] G4z4 | 
[V:2] b4a2a2 | 
[V:3] d8- | 
[V:4] G,,4D,4 | 
[V:1] z4A4 | 
[V:2] g2g2f4 | 
[V:3] d8- | 
[V:4] G,,4D,4 | 
[V:1] B4A2A2 | 
[V:2] g4z4 | 
[V:3] d8- | 
[V:4] G,,4D,4 | 
[V:1] G2G2F4 | 
[V:2] z4a4 | 
[V:3] d8- | 
[V:4] G,,4D,4 | 
[V:1] z4A4 | 
[V:2] b4a2a2 | 
[V:3] d8- | 
[V:4] G,,4D,4 | 
[V:1] B4A2A2 | 
[V:2] g2g2f4 | 
[V:3] d8- | 
[V:4] G,,4D,4 | 
[V:1] G2G2F4 | 
[V:2] z4a4 | 
[V:3] d8- | 
[V:4] G,,4D,4 | 
[V:1] G4z2A2 | 
[V:2] b4a2a2 | 
[V:3] d8- | 
[V:4] G,,4D,4 | 
[V:1] B4A2A2 | 
[V:2] g2g2f4 | 
[V:3] d8- | 
[V:4] G,,4D,4 | 
[V:1] G2G2F4 | 
[V:2] g4z2a2 | 
[V:3] d8- | 
[V:4] G,,4D,4 | 
[V:1] z4A4 | 
[V:2] b4a2a2 | 
[V:3] d8- | 
[V:4] G,,4D,4 | 
[V:1] B4A2A2 | 
[V:2] g2g2f4 | 
[V:3] d8- | 
[V:4] G,,4D,4 | 
[V:1] G2G2F4 | 
[V:2] z4a4 | 
[V:3] d8- | 
[V:4] G,,4D,4 | 
[V:1] G8 |]  
[V:2] b8 |]  
[V:3] d8 |]  
[V:4] G,,8 |]  



